ibt/assets/img/icons/adv-3-ico.svg

<svg width="70" height="70" viewBox="0 0 70 70" fill="none" xmlns="http://www.w3.org/2000/svg">
<path d="M50.0001 0C38.9726 0 30.0002 8.97246 30.0002 19.9999C30.0002 24.1061 31.2477 27.9249 33.3777 31.1049L0.366561 64.116C-0.122187 64.6047 -0.122187 65.3947 0.366561 65.8835C0.61031 66.1272 0.930308 66.2497 1.25031 66.2497C1.57031 66.2497 1.8903 66.1272 2.13405 65.8835L7.50028 60.5172L16.6165 69.6334C16.8602 69.8772 17.1802 69.9997 17.5002 69.9997C17.8202 69.9997 18.1402 69.8772 18.384 69.6334C18.8727 69.1447 18.8727 68.3547 18.384 67.8659L9.26777 58.7497L13.7503 54.2673L20.3665 60.8835C20.6102 61.1272 20.9302 61.2497 21.2502 61.2497C21.5702 61.2497 21.8902 61.1272 22.134 60.8835C22.6227 60.3947 22.6227 59.6047 22.134 59.116L15.5177 52.4998L20.0002 48.0173L29.1164 57.1335C29.3602 57.3772 29.6802 57.4997 30.0002 57.4997C30.3202 57.4997 30.6402 57.3772 30.8839 57.1335C31.3727 56.6447 31.3727 55.8547 30.8839 55.366L21.7677 46.2498L34.9202 33.0974C38.5901 37.3161 43.9826 39.9998 50.0001 39.9998C61.0275 39.9998 70 31.0274 70 19.9999C70 8.97246 61.0275 0 50.0001 0ZM50.0001 37.4998C40.3501 37.4998 32.5002 29.6499 32.5002 19.9999C32.5002 10.35 40.3501 2.49999 50.0001 2.49999C59.65 2.49999 67.5 10.35 67.5 19.9999C67.5 29.6499 59.65 37.4998 50.0001 37.4998Z" fill="white"/>
</svg>

<svg width="70" height="70" fill="none" xmlns="http://www.w3.org/2000/svg"><path d="M50 0C38.973 0 30 8.972 30 20a19.89 19.89 0 003.378 11.105L.367 64.116a1.249 1.249 0 101.767 1.767L7.5 60.517l9.116 9.116a1.246 1.246 0 001.768 0 1.249 1.249 0 000-1.767L9.268 58.75l4.482-4.483 6.616 6.616a1.247 1.247 0 001.768 0 1.249 1.249 0 000-1.767L15.518 52.5 20 48.017l9.116 9.116a1.247 1.247 0 001.768 0 1.249 1.249 0 000-1.767l-9.116-9.116L34.92 33.097C38.59 37.317 43.983 40 50 40c11.028 0 20-8.973 20-20C70 8.972 61.028 0 50 0zm0 37.5c-9.65 0-17.5-7.85-17.5-17.5S40.35 2.5 50 2.5 67.5 10.35 67.5 20 59.65 37.5 50 37.5z" fill="#fff"/></svg>
